public/img/field-20.svg

<svg width="67" height="66" viewBox="0 0 67 66" fill="none" xmlns="http://www.w3.org/2000/svg">
<ellipse cx="13.5" cy="52" rx="13.5" ry="14" fill="#E30020"/>
<path d="M62 38C62.2652 38 62.5196 37.8946 62.7071 37.7071C62.8946 37.5196 63 37.2652 63 37V33C63 32.7348 62.8946 32.4804 62.7071 32.2929C62.5196 32.1054 62.2652 32 62 32H57V29C57 28.8026 56.9415 28.6095 56.832 28.4453L40.832 4.44525C40.7407 4.30829 40.617 4.19599 40.4718 4.11832C40.3267 4.04065 40.1646 4.00001 40 4H36.828C36.6003 3.35688 36.1603 2.81057 35.5804 2.45117C35.0005 2.09177 34.3154 1.94075 33.6382 2.02303C32.9609 2.1053 32.3319 2.41596 31.855 2.90375C31.378 3.39154 31.0816 4.02733 31.0145 4.70625L9.42338 42H8C7.73478 42 7.48043 42.1054 7.29289 42.2929C7.10536 42.4804 7 42.7348 7 43V47C6.99991 47.1354 7.02743 47.2694 7.08088 47.3939L12.042 58.9696C12.4268 59.8694 13.0675 60.6364 13.8846 61.1751C14.7016 61.7139 15.6589 62.0007 16.6375 62H53.3625C54.3412 62.0007 55.2985 61.7139 56.1156 61.1752C56.9326 60.6364 57.5734 59.8695 57.9582 58.9696L62.9193 47.3939C62.9727 47.2694 63.0001 47.1354 63 47V43C63 42.7348 62.8946 42.4804 62.7071 42.2929C62.5196 42.1054 62.2652 42 62 42H37V38H62ZM61 36H37V34H61V36ZM37 32V30H55V32H37ZM46.1315 16H37V14H44.7981L46.1315 16ZM47.4649 18L51.4649 24H37V18H47.4649ZM52.7981 26L54.1315 28H37V26H52.7981ZM43.4649 12H37V6H39.4649L43.4649 12ZM31 8.72313V42H11.7345L31 8.72313ZM56.1198 58.1818C55.8889 58.7216 55.5045 59.1818 55.0143 59.5051C54.5241 59.8283 53.9497 60.0004 53.3625 60H16.6375C16.0503 60.0005 15.4759 59.8284 14.9857 59.5051C14.4954 59.1818 14.111 58.7217 13.8801 58.1818L9.51663 48H60.4834L56.1198 58.1818ZM61 46H9V44H61V46ZM33 42V5C33 4.73479 33.1054 4.48043 33.2929 4.2929C33.4804 4.10536 33.7348 4 34 4C34.2652 4 34.5196 4.10536 34.7071 4.2929C34.8946 4.48043 35 4.73479 35 5V42H33Z" fill="#5A2E91"/>
<path d="M24 51C24 50.4477 23.5523 50 23 50C22.4477 50 22 50.4477 22 51C22 51.5523 22.4477 52 23 52C23.5523 52 24 51.5523 24 51Z" fill="#5A2E91"/>
<path d="M28 51C28 50.4477 27.5523 50 27 50C26.4477 50 26 50.4477 26 51C26 51.5523 26.4477 52 27 52C27.5523 52 28 51.5523 28 51Z" fill="#5A2E91"/>
<path d="M32 51C32 50.4477 31.5523 50 31 50C30.4477 50 30 50.4477 30 51C30 51.5523 30.4477 52 31 52C31.5523 52 32 51.5523 32 51Z" fill="#5A2E91"/>
<path d="M36 51C36 50.4477 35.5523 50 35 50C34.4477 50 34 50.4477 34 51C34 51.5523 34.4477 52 35 52C35.5523 52 36 51.5523 36 51Z" fill="#5A2E91"/>
<path d="M40 51C40 50.4477 39.5523 50 39 50C38.4477 50 38 50.4477 38 51C38 51.5523 38.4477 52 39 52C39.5523 52 40 51.5523 40 51Z" fill="#5A2E91"/>
<path d="M44 51C44 50.4477 43.5523 50 43 50C42.4477 50 42 50.4477 42 51C42 51.5523 42.4477 52 43 52C43.5523 52 44 51.5523 44 51Z" fill="#5A2E91"/>
<path d="M48 51C48 50.4477 47.5523 50 47 50C46.4477 50 46 50.4477 46 51C46 51.5523 46.4477 52 47 52C47.5523 52 48 51.5523 48 51Z" fill="#5A2E91"/>
</svg>

<svg width="67" height="66" fill="none" xmlns="http://www.w3.org/2000/svg"><ellipse cx="13.5" cy="52" rx="13.5" ry="14" fill="#E30020"/><path d="M62 38a1 1 0 001-1v-4a1 1 0 00-1-1h-5v-3a1 1 0 00-.168-.555l-16-24A1 1 0 0040 4h-3.172a3 3 0 00-5.814.706L9.425 42H8a1 1 0 00-1 1v4c0 .135.027.27.08.394l4.962 11.576A4.993 4.993 0 0016.637 62h36.725a4.995 4.995 0 004.596-3.03l4.961-11.576A.997.997 0 0063 47v-4a1 1 0 00-1-1H37v-4h25zm-1-2H37v-2h24v2zm-24-4v-2h18v2H37zm9.132-16H37v-2h7.798l1.334 2zm1.333 2l4 6H37v-6h10.465zm5.333 8l1.334 2H37v-2h15.798zm-9.333-14H37V6h2.465l4 6zM31 8.723V42H11.735L31 8.723zm25.12 49.459A2.997 2.997 0 0153.362 60H16.639a2.996 2.996 0 01-2.758-1.818L9.517 48h50.966L56.12 58.182zM61 46H9v-2h52v2zm-28-4V5a1 1 0 012 0v37h-2z" fill="#5A2E91"/><path d="M24 51a1 1 0 10-2 0 1 1 0 002 0zm4 0a1 1 0 10-2 0 1 1 0 002 0zm4 0a1 1 0 10-2 0 1 1 0 002 0zm4 0a1 1 0 10-2 0 1 1 0 002 0zm4 0a1 1 0 10-2 0 1 1 0 002 0zm4 0a1 1 0 10-2 0 1 1 0 002 0zm4 0a1 1 0 10-2 0 1 1 0 002 0z" fill="#5A2E91"/></svg>
